!!!!SEGMENT: pl-sa--481-a-viii-121--052_anonim--rondo.krn
!!!cenid: 18xx:423
!!!COM: Anonim
!!!COM-rismID:
!!!CDT:
!!!CNT:
!!!OTL: Rondo
!!!PDT:
!!!AGN: Secular
!!!SMS-siglum: PL-SA
!!!SMS-shelfmark: 481/A VIII 121
!!!SMS-shelfwork: 052 W
!!!SMS-variant:
!!!SMS-altvar:
!!!NIFC-rismSourceID: 1001070742
!!!NIFC-islandoraID:
!!!URL-pdf-islandora:
!!!URL-scan: https://bc.bdsandomierz.pl/dlibra/publication/1212/edition/1171/content @EN{Scan on Cyfrowa Biblioteka Diecezjalna w Sandomierzu} @PL{Skany w portalu Cyfrowa Biblioteka Diecezjalna w Sandomierzu}
!!!ONB-nifc: Str. 36, s. 2-4
!!!AIN: 1 piano
!!!key: F
**kern	**kern
*part1	*part1
*staff2	*staff1
*Ipiano	*Iempty
*I"Piano	*I"Piano
*I'pf	*I'pf
*Ipiano	*Ipiano
*ICklav	*ICklav
*IGsolo	*IGsolo
*mI"Pianoforte	*mI"Pianoforte
*clefF4	*clefG2
*mclefG2	*
*k[b-]	*k[b-]
*F:	*F:
*M3/8	*M3/8
*>[A,A,B,B,C,C]	*>[A,A,B,B,C,C]
=1	=1
*>A	*>A
*clefG2	*
!	!LO:TX:a:t=Rondo:mod=
8c/L	8cc\L
8a 8f/	8ff 8a\
8aJ 8f/	8ffJ 8a\
=2	=2
*rep	*
8c/L	8ff\L
8a 8f/	8gg\
8aJ 8f/	8aa\J
*Xrep	*
=3	=3
.	16qqff#X/
8c/L	4gg\
8b- 8g/	.
8b-J 8g/	8cc\
=4	=4
*rep	*
8c/L	4cc\
8b- 8g/	.
8b-J 8g/	8ccc\
*Xrep	*
=5	=5
.	8qqgg#X/
8c/L	4aa\
8a 8f/	.
8aJ 8f/	8ff\
=6	=6
*rep	*
8c/L	8ff\L
8a 8f/	8ee\
8aJ 8f/	8ff\J
*Xrep	*
=7	=7
!	!LO:SIC:v:s=8qqff#
.	8qqff/
8c/L	4gg\
8b- 8g/	.
8b-J 8g/	8cc\
=8	=8
*rep	*
8c/L	4cc\
8b- 8g/	.
8b-J 8g/	8r
*Xrep	*
!LO:LB:g=original	!LO:LB:g=original
=9	=9
!LO:TX:a:mod=:t=P:problem=w nowym systemie pojawia się klucz F4, ale to za wcześnie, powinien dopiero w t.14	!
8c/L	8cc\L
8a 8f/	8ff\
8aJ 8f/	8ff\J
=10	=10
*rep	*
8c/L	8ff\L
8a 8f/	8gg\
8aJ 8f/	8aa\J
*Xrep	*
=11	=11
!	!LO:SIC:v:s=8qqff#
.	8qqff/
8c/L	4gg\
8b- 8g/	.
8b-J 8g/	8cc\
=12	=12
*rep	*
8c/L	4cc\
8b- 8g/	.
8b-J 8g/	8ccc\
*Xrep	*
=13	=13
8c/L	4aa\
8a 8f/	.
8aJ 8f/	8ff\
=14	=14
*rep	*
8c/L	8cc\L
8a 8f/	8dd\
8aJ 8f/	8ee\J
*Xrep	*
!LO:MO:mod=!null:null	!
!LO:CL:ed	!
*clefF4	*
=15	=15
8f\L	4ff\
8c\	.
8A\J	8r
=16	=16
!	!LO:N:vis=8
4.F\	4.r
=17:|!|:	=17:|!|:
*>B	*>B
8F\L	8cc\L
8A\	8ff 8a\
8c\J	8ffJ 8a\
=18	=18
*rep	*
8F\L	8ffL 8a\
8A\	8gg 8b-\
8c\J	8aaJ 8cc\
*Xrep	*
=19	=19
!LO:TX:a:mod=:t=P:problem=takt przekreślony niepotrzebnie	!
8E\L	4gg\
8G\	.
!	!LO:TX:a:mod=:t=P:problem=po tym takcie skreślony takt
8c\J	8cc\
=20	=20
*rep	*
8E\L	4cc\
8G\	.
8c\J	8ccc\
*Xrep	*
=21	=21
.	8qqgg#X/
8F\L	4aa\
8A\	.
8c\J	8ff\
=22	=22
8F\L	8ff\L
8A\	8ee\
8c\J	8ff\J
=23	=23
.	16qqff#X/
8E\L	4gg\
8G\	.
8c\J	8cc\
=24	=24
*rep	*
8E\L	4cc\
8G\	.
8c\J	8r
*Xrep	*
=25	=25
8F\L	8cc\L
8A\	8ff 8a\
8c\J	8ffJ 8a\
=26	=26
*rep	*
8F\L	8ffL 8a\
8A\	8gg 8b-\
8c\J	8aaJ 8cc\
*Xrep	*
=27	=27
.	16qqff#X/
8E\L	4gg\
8G\	.
8c\J	8cc\
!LO:LB:g=original	!LO:LB:g=original
=28	=28
!LO:MO:mod=*null:null	!
*clefF4	*
*rep	*
8E\L	4cc\
8G\	.
8c\J	8ccc\
*Xrep	*
=29	=29
8F\L	4aa\
8A\	.
8c\J	8ff\
=30	=30
*rep	*
8F\L	8cc\L
8A\	8dd\
8c\J	8ee\J
*Xrep	*
=31	=31
8F/L	4ff\
8C/	.
8AA/J	8r
=32	=32
!	!LO:N:vis=8
4FF/	4.r
8r	.
=33:|!|:	=33:|!|:
*>C	*>C
8F\L	16ff\LL
.	16gg\
8c 8A\	16ff\
.	16ee\JJ
8cJ 8A\	8ff\
=34	=34
*rep	*
8F\L	4cc\
8c 8A\	.
8cJ 8A\	8aa 8ff\
*Xrep	*
=35	=35
8E\L	8ccc\L
8c 8B- 8G\	8bb- 8gg\
8cJ 8B- 8G\	8bb-J 8gg\
=36	=36
*rep	*
8E\L	8bb-L 8gg\
8c 8B- 8G\	8bb- 8gg\
8cJ 8B- 8G\	8bb-J 8gg\
*Xrep	*
=37	=37
8E\L	16ee\LL
.	16ff\
8c 8B- 8G\	16ee\
.	16dd\JJ
8cJ 8B- 8G\	8ee\
=38	=38
*rep	*
8E\L	4cc\
8c 8B- 8G\	.
8cJ 8B- 8G\	8gg 8ee\
*Xrep	*
=39	=39
8F\L	8bb-L 8gg\
8c 8A\	8aa 8ff\
8cJ 8A\	8aaJ 8ff\
=40	=40
8F\L	4aa 4ff\
8c 8A\	.
8cJ 8A\	8r
=41	=41
*rep	*
8F\L	16ff\LL
.	16gg\
8c 8A\	16ff\
.	16ee\JJ
8cJ 8A\	8ff\
*Xrep	*
=42	=42
4.c 4.A 4.F\	8cc\L
.	8ccc\
.	8aa\J
=43	=43
4.B-\	8dddL 8ff\
.	8ccc 8ee\
.	8bb-J 8dd\
=44	=44
4c\	8aaL 8cc\
.	8gg 8b-\
8C/	8eeJ 8g\
=45	=45
!	!LO:MO:mod=!null:null
!	!LO:N:vis=8.
8F/L	4.ff 4.cc 4.a\
8C/	.
8AA/J	.
=46	=46
4F 4C 4AA 4FF/	4ff 4cc 4a\
8r	8r
==:|!;;	==:|!;;
*-	*-
!!!system-decoration: {(s1,s2)}
!!!filter-modern: sic -sq | modori -m | autostem -r | tie -s | shed -k -e "s/[<>]//g" | shed -e "s/^(X?)rep$/$1REP/I" 
!!!ENC: Marta Chmielewska
!!!END: 2020-06-15
!!!ENC: Marta Lawrence
!!!END: 2020-11-23
!!!ENC-modern: Andrzej Borzym
!!!END-modern: 2022-06-18
